symbols/web/3k_plus/materialsymbolssharp/3k_plus_wght200grad200fill1_24px.svg

<svg xmlns="http://www.w3.org/2000/svg" height="24" width="24"><path d="M16.725 13.875h.775v-1.5H19v-.75h-1.5v-1.5h-.775v1.5h-1.5v.75h1.5Zm-5.15.875h.875v-2.425l2.35 2.425h1.25l-2.725-2.8 2.725-2.7h-1.225l-2.375 2.375V9.25h-.875Zm-5.1 0H10.4v-5.5H6.475v.9h3v1.475h-2v.75h2v1.475h-3Zm-3.125 5.9V3.35h17.3v17.3Z"/></svg>

<svg xmlns="http://www.w3.org/2000/svg" height="24" width="24"><path d="M16.725 13.875H17.5V12.375H19V11.625H17.5V10.125H16.725V11.625H15.225V12.375H16.725ZM11.575 14.75H12.45V12.325L14.8 14.75H16.05L13.325 11.95L16.05 9.25H14.825L12.45 11.625V9.25H11.575ZM6.475 14.75H10.4V9.25H6.475V10.15H9.475V11.625H7.475V12.375H9.475V13.85H6.475ZM3.35 20.65V3.35H20.65V20.65Z"/></svg>
